packages/kaspersky-hexa-ui-icons/src/iconsSVGs/16/PremiumCrown.svg

<svg width="16" height="16" viewBox="0 0 16 16" fill="none" xmlns="http://www.w3.org/2000/svg">
<path fill-rule="evenodd" clip-rule="evenodd" d="M1.10449 10.7505V11.8355C1.10449 13.1886 2.20139 14.2855 3.55449 14.2855H12.4496C13.8027 14.2855 14.8996 13.1886 14.8996 11.8355V3.64976C14.8996 3.01702 14.1643 2.66862 13.6746 3.06932L10.5643 5.61444L8.5658 2.18466C8.27714 1.68926 7.56192 1.68784 7.27128 2.18208L5.26161 5.59967L2.34375 3.08829C1.85754 2.66981 1.10449 3.01525 1.10449 3.65673V10.5903C1.10127 10.6166 1.09961 10.6433 1.09961 10.6704C1.09961 10.6975 1.10127 10.7242 1.10449 10.7505ZM6.04842 6.82627L7.91562 3.65098L9.76566 6.82596C9.99793 7.22457 10.5316 7.32097 10.8886 7.02881L13.5996 4.81048V10.0204H2.40449V4.85578L4.91266 7.01454C5.26714 7.31964 5.81135 7.22943 6.04842 6.82627ZM2.40449 11.3204H13.5996V11.8355C13.5996 12.4707 13.0847 12.9855 12.4496 12.9855H3.55449C2.91936 12.9855 2.40449 12.4707 2.40449 11.8355V11.3204Z" fill="black"/>
</svg>

<svg xmlns="http://www.w3.org/2000/svg" width="16" height="16" fill="none" viewBox="0 0 16 16"><path fill="#000" fill-rule="evenodd" d="M1.1045 10.7505v1.085c0 1.3531 1.0969 2.45 2.45 2.45h8.8951c1.3531 0 2.45-1.0969 2.45-2.45V3.6498c0-.6328-.7353-.9812-1.225-.5805l-3.1103 2.5451-1.9985-3.4297c-.2887-.4954-1.0039-.4969-1.2945-.0026L5.2616 5.5997 2.3438 3.0883c-.4863-.4185-1.2393-.073-1.2393.5684v6.9336a.66.66 0 0 0 0 .1602m4.944-3.9242 1.867-3.1753 1.85 3.175c.2323.3986.766.495 1.123.2028l2.711-2.2183v5.2099H2.4045V4.8558l2.5082 2.1587c.3544.3051.8987.215 1.1357-.1882m-3.644 4.4941h11.1951v.5151c0 .6352-.5149 1.15-1.15 1.15h-8.895c-.6351 0-1.15-.5148-1.15-1.15z"/></svg>
